svgs/sharp-light/square-sliders-vertical.svg

<svg xmlns="http://www.w3.org/2000/svg" viewBox="0 0 448 512"><!--! Font Awesome Pro 6.6.0 by @fontawesome - https://fontawesome.com License - https://fontawesome.com/license (Commercial License) Copyright 2024 Fonticons, Inc. --><path d="M416 64l0 384L32 448 32 64l384 0zM32 32L0 32 0 64 0 448l0 32 32 0 384 0 32 0 0-32 0-384 0-32-32 0L32 32zm128 96l-32 0 0 16 0 48-24 0-16 0 0 32 16 0 24 0 32 0 24 0 16 0 0-32-16 0-24 0 0-48 0-16zm0 128l-32 0 0 16 0 96 0 16 32 0 0-16 0-96 0-16zM320 128l-32 0 0 16 0 112-24 0-16 0 0 32 16 0 24 0 32 0 24 0 16 0 0-32-16 0-24 0 0-112 0-16zm0 192l-32 0 0 16 0 32 0 16 32 0 0-16 0-32 0-16z"/></svg>

<svg xmlns="http://www.w3.org/2000/svg" viewBox="0 0 448 512"><!--! Font Awesome Pro 6.5.2 by @fontawesome - https://fontawesome.com License - https://fontawesome.com/license (Commercial License) Copyright 2024 Fonticons, Inc. --><path d="M416 64V448H32V64H416zM32 32H0V64 448v32H32 416h32V448 64 32H416 32zm128 96H128v16 48H104 88v32h16 24 32 24 16V192H184 160V144 128zm0 128H128v16 96 16h32V368 272 256zM320 128H288v16V256H264 248v32h16 24 32 24 16V256H344 320V144 128zm0 192H288v16 32 16h32V368 336 320z"/></svg>
